X:1
T:Springhill Mine Disaster (1891)
M:4/4
L:1/4
K:D
 D| G3/2 F/2 G A| dA/2-B/2 =c E/2F/2| G F D ^C| D3| A| dd/2-e/2=f/2-e/2 d|\
 =cA/2-B/2 c d| A3/2 B/2 d B| A3| A| d3/2 e/2 =f e| d B =c d| A3/2 B/2 A G|\
 A3| D| G F G A| d-A/2-B/2 =c E/2F/2| G F D ^C| D3||

